X:399
T:Washerwoman's Branle (in D dorian and G dorian)
Z:Jack Campin, http://www.campin.me.uk/
F:Jack Campin's Nine-Note Tunebook
% last edit 03-02-2013
S:Cam-French Tune Book
M:C|
L:1/4
Q:1/2=92
K:DDor
  DDDD|CCF2|GFED|DCD2::DAFA|GFED:|
|:DDC2|D2E2|EEEF|GFED |\
  DDC2|D2E2|GFED|DCD2:|
K:GDor
  GGGG|FFB2|cBAG|GFG2::GdBd|cBAG:|
|:GGF2|G2A2|AAAB|cBAG |\
  GGF2|G2A2|cBAG|GFG2:|

